X:1
T:Not My Own
T:Not My Own
T:James McGranahan
T:Daniel Webster Whittle, 1878
T:Public Domain Courtesy of the Cyber Hymnal™
C:James McGranahan
Z:Public Domain
Z:Courtesy of the Cyber Hymnal™
%%score ( 1 2 ) ( 3 4 )
L:1/8
Q:1/4=95
M:3/4
K:G
V:1 treble 
V:2 treble 
V:3 bass 
V:4 bass 
V:1
 [GB]>[Ac] | [Bd]3 [GB] [ce]>[Bd] | [Bd]2 [Ac]2 [FA]>[GB] | [Ac]3 [ce] [Bd]>[Ac] | %4
w: 1.~“Not my|own,” but saved by|Je- sus, Who re-|deemed me by His|
w: 2.~“Not my|own!” to Christ, my|Sav- ior, I, be-|liev- ing, trust my|
w: 3.~“Not my|own!” my time, my|tal- ent, Free- ly|all to Christ I|
w: 4.~“Not my|own!” the Lord ac-|cepts me, One a-|mong the ran- somed|
 [GB]4 [B,G]>[CA] | [DB]3 [B,G] [Ec]>[DB] | [DB]2 [CA]2 [A,F]>[B,G] | [DA]3 [Ec] [DB]>[CA] | %8
w: blood, Glad- ly|I ac- cept the|mess- age, I be-|long to Christ the|
w: soul; Ev- ery-|thing to Him com-|mit- ted, While e-|ter- nal ag- es|
w: bring, To be|used in joy- ful|ser- vice For the|glo- ry of my|
w: throng, Who in|Heav’n shall see His|glo- ry, And to|Je- sus Christ be-|
 [B,G]4 ||[M:4/4]"^Refrain" [DG]>[GB] | [FA]4- [FA]>[^E^G] [FA]>[Ac] | [GB]6 [GB]>[^Gd] | %12
w: Lord.||||
w: roll.|“Not my|own!” * Oh, “not my|own!” Je- sus,|
w: king.||||
w: long.||||
 [A^c]4- [Ac]>[A^B] [Gc]>[Ge] | d6 !fermata![Fd]>[Ac] | [GB]3 G [GA]2 [=FB]2 | %15
w: |||
w: I * be- long to|Thee! All I|have, and all I|
w: |||
w: |||
 [Ec]2 [Ge]4 [Gd]>[Gc] | [GB]3 [DG] [DA]3 [DF] | [DG]6 |] %18
w: |||
w: hope for, Thine for|all e- ter- ni-|ty.|
w: |||
w: |||
V:2
 x2 | x6 | x6 | x6 | x6 | x6 | x6 | x6 | x4 ||[M:4/4] x2 | x8 | x8 | x8 | (F2 G2 A2) x2 | x3 G x4 | %15
 x8 | x8 | x6 |] %18
V:3
 G,>G, | G,3 G, G,>G, | [D,F,]2 (F,A,) [D,D]>[D,D] | [D,D]3 [D,D] [D,D]>[D,D] | [G,D]4 G,>[D,F,] | %5
w: ~ ~|~ ~ ~ ~|~ ~ * ~ ~|~ ~ ~ ~|~ ~ ~|
 [G,,G,]3 [G,,G,] [G,,G,]>[G,,G,] | [D,F,]2 [D,F,]2 D,>[D,G,] | [D,F,]3 [D,F,] [D,G,]>D, | %8
w: ~ ~ ~ ~|~ ~ ~ ~|~ ~ ~ ~|
 [G,,D,]4 ||[M:4/4] z2 | z2 [D,D]2 [D,D]2 z2 | z2 [G,D]2 [G,D]2 [G,D]>[=F,B,] | %12
w: ~||~ Oh,|no! Oh, no! Je-|
 [E,A,]2 [E,A,]2 [A,,A,]2 [A,,A,]2 | [D,A,]2 [D,B,]2 !fermata![D,C]2 [D,B,]>[D,C] | %14
w: sus, I be- long,|be- long to Thee! *|
 [G,D]3 [F,B,] [E,C]2 [D,G,]2 | [C,G,]2 [C,C]4 [B,,D]>[C,E] | [D,D]3 [D,B,] [D,C]3 [D,C] | %17
w: |||
 [G,,B,]6 |] %18
w: |
V:4
 G,>G, | G,3 G, G,>G, | x2 D,2 x2 | x6 | x4 G,3/2 x/ | x6 | x4 D,3/2 x/ | x11/2 D,/ | x4 || %9
[M:4/4] x2 | x8 | x8 | x8 | x8 | x8 | x8 | x8 | x6 |] %18

